X:5006
T:Endearing Young Charms
T:Believe Me if All those Endearing Young Charms
T:My Lodging is on the Cold Ground
R:Waltz
C:Music Trad. 17C
N:Words by Thomas Moore 1808
O:Ireland
M:3/4
L:1/8
Q:1/8=260
K:D
FE|"D"D3ED2|"Bm"D2F2A2|"G"G2B2d2|"G"d4cB|"D"A3GF2|"A7"E3DE2|"D"F6|"A7"E4FE|
"D"D3ED2|"Bm"D2F2A2|"G"G2B2d2|"G"d4cB|"D"A2d2F2|"A7"E3DE2|"D"D6-|D4AG|
"D"F2A2d2|"D"d4AA|"G"B2G2d2|"G"d4cB|"D"A3GF2|"A7"E3DE2|"D"F6|"A7"E4FE|
"D"D3ED2|"Bm"D2F2A2|"G"G2B2d2|"G"d4cB|"D"A2d2F2|"A7"E3DE2|"D"D6-|D4z2|]

